X: 11
T: Smash the Windows
R: jig
B: NEFR #11
N: In O'Neill's as a reel (#1382)
Z: 1997 by John Chambers <jc:trillian.mit.edu>
N: See also Roaring Jelly, played with B2 twice rather than A1-A1-B1-B2.
M: 6/8
L: 1/8
K: D
A \
| "D"DED F2A | d2f "A"ecA | "G"G2B "D"F2A | "Em"E2F "A7"GFE \
| "D"DED F2A | d2f "A"ecA | "G"Bgf "A7"edc | "D"ded d2 :|
| "D"a2f d2e | f2g agf | "A7"g2e c2e | e2f gfe \
| "D"a2f d2e | f2g agf | "Em"g2{f}e "A7"cde | "D"d3 def |]
| "D"a2f d2e | f2g agf | "A7"g2e c2d | e2f gfe \
| "D"fed "Em"gfe | "D"agf "G"bag | "D"fed "A7"cde | "D"ded d2 |]
